X:2839
T:Chapel Gate
R:Reel
C:Ed Reavy
M:2/2
L:1/8
Z:Joe Reavy
N:The Chapel Gate is Knockbride's, 
N:the family parish. Many a good wedding 
N:party started there featuring the wedding 
N:fiddler and his charming selection 
N:of nuptial tunes.
K:A
A2 EA cdef|gfga gede a^ged cdeg|aged cA=GD|E=GAB =cBAG|
E=GGF G2 AB|^cde^g aged|cA=GB A2 z:||cd|eaag a2 ag|
ea (3aga bgag|edBd =gfgf|(3ef=g dg edcd|eaag a2 ag |
(3ba^g (3a=gf gfed|cdef gfec|dB=GB A2 z:||


